!!!OTL: Des Abends in der Stille (3-62), S. 179
!!!id: P1035
**kern
*clefG2
*k[b-]
*F:
{4c
=1
4.f
8g
4a
4b-
=2
4.cc
8dd
4cc}
=3
{4cc
=4
4.b-
8a
4b-
4cc
=5
2a}
4r
=6
{4c
=7
4.f
8g
4a
4b-
=8
4.cc
8dd
4cc}
=9
{4cc
=10
4.b-
8a
4b-
4cc
=11
2a}
4r
=12
{8cc
8dd
=13
4cc
4a
8g
8g
4b-
=14
4a
4cc
4a}
=15
{8cc
8dd
=16
4cc
4a
8g
8g
4b-
=17
4a
4cc
4a}
=18
{8a
8cc
=19
4.dd
8cc
4b-
8cc
8b-
=20
2a}
4r
==
*-
!!!minrhy: 8
!!!meters: 4/4 ]  ZZ[7
!!!cut: Des Abends in der Stille (3-62), S. 179
!!!reg: Lothringen
!!!trd: PINCK, Louis: Verklingende Weisen, Bd3, Metz 1933
!!!rhy1: X_  X_.XX_X_  X_.XX_
!!!rhy2: X_  X_.XX_X_  X__0_
!!!key: P1035  08  F 4/4 ]  ZZ[7
!!!mod: SECHSTONSKALA DUR ?]  AMBITUS[9
!!!kad: 5353333
!!!akz: 1355_443_1355_443_5233_5233_643_
!!!fot: 'a__b__a__b__c__c__d__
!!!for: 'a__aw_a__aw_b__b__c__
!!!fok: '/__Sd_/__Sd_\__\__^__
!! PHRAS[AUFTAKTIG]
!!!fkt: Werbung, Treue?
!! LOTH VKL
!! PR[13] 2K[6] 2G[21] 3K[6] 3G[2] 4A[0] 4Ü[0] 5A[2] 6K[0] 6G[2]
!! 7K[0] 7G[0] 8A[0] MEHR[0] SI[40] ABS[48] SR[27] SP[13]
!! ST[12] 2k[8] 2g[25] 3k[6] 3g[6] 4d[2] 4ü[0] 5d[0] 6k[0] 6g[0]
!! 7k[0] 7g[0] 8d[0] mehr[0] si[48] dm[-8] sr[33] sp[15]
!! 1F[8] 2F[49] 3F[29] 4F[6] LF[0] 2P[8] 3P[0] 4P[0] TRI[0] DF[5] AB[49]
!! TF[0] U3K[0] U3[0] U4[0] U4Ü[0] U5[2] U6K[0] U6[0] U7K[0] U7[0]
!! N1[14] N2K[0] N2[20] N3K[0] N3[27] N4[16] N4Ü[0] N5[16] N6K[0] N6[4]
!!!n7k: 0] N7[0] O1[0] O2K[0] O2[0] O3K[0] O3[0] HÖ[0
